X: 364
T:Flatworld
M:3/4
L:1/8
C:Andy Cutting
R:Mazurka
Z:Steve Mansfield May 2001
K:Bm
f ef | de cd Bc | B2 Bc dB | {f}g2 gf ed | c3 f ef |
de cd Bc | B2 Bd cB | c2 ce dc |1 B3 :|2 B3 F GF
|: Bc dB ba | g2 gf ed | cd ec ag | f2 fe dc |
Bc dB gf | e2 ed cB |1 c2 ce de | c2 cc dc :|
2 c2 ce dA | B3 ||

